images/icon-eye.svg

<svg width="20" height="13" viewBox="0 0 20 13" fill="none" xmlns="http://www.w3.org/2000/svg">
<path d="M10 0C5.58869 0 1.78673 2.58677 0.0402296 6.31965C-0.0134099 6.43277 -0.0134099 6.5651 0.0402296 6.68035C1.78673 10.4132 5.58871 13 10 13C14.4113 13 18.2133 10.4132 19.9598 6.68035C20.0134 6.56723 20.0134 6.4349 19.9598 6.31965C18.2133 2.58677 14.4113 0 10 0ZM10 10.9852C7.50898 10.9852 5.49214 8.97685 5.49214 6.50107C5.49214 4.02315 7.51113 2.01691 10 2.01691C12.491 2.01691 14.5079 4.02528 14.5079 6.50107C14.5079 8.97685 12.4889 10.9852 10 10.9852Z" fill="#CCCCCC"/>
<path d="M10.0001 9.36954C11.5938 9.36954 12.8859 8.08432 12.8859 6.49891C12.8859 4.91351 11.5938 3.62828 10.0001 3.62828C8.40627 3.62828 7.11426 4.91351 7.11426 6.49891C7.11426 8.08432 8.40627 9.36954 10.0001 9.36954Z" fill="#CCCCCC"/>
</svg>

<svg width="20" height="13" fill="none" xmlns="http://www.w3.org/2000/svg"><path d="M10 0A10.984 10.984 0 00.04 6.32a.424.424 0 000 .36A10.984 10.984 0 0010 13c4.411 0 8.213-2.587 9.96-6.32a.425.425 0 000-.36A10.984 10.984 0 0010 0zm0 10.985c-2.491 0-4.508-2.008-4.508-4.484 0-2.478 2.02-4.484 4.508-4.484 2.491 0 4.508 2.008 4.508 4.484s-2.02 4.484-4.508 4.484z" fill="#CCC"/><path d="M10 9.37a2.878 2.878 0 002.886-2.871A2.878 2.878 0 0010 3.629a2.878 2.878 0 00-2.886 2.87A2.878 2.878 0 0010 9.369z" fill="#CCC"/></svg>
